packages/bezier-icons/icons/call-app.svg

<svg width="24" height="24" viewBox="0 0 24 24" fill="none" xmlns="http://www.w3.org/2000/svg">
<path fill-rule="evenodd" clip-rule="evenodd" d="M12 0C5.37258 0 0 5.37258 0 12C0 18.6274 5.37258 24 12 24C18.6274 24 24 18.6274 24 12C24 5.37258 18.6274 0 12 0ZM9.22372 14.7763C5.52436 11.0769 5.52436 7.83999 6.68041 6.68395C7.37404 5.99032 8.38813 5.80211 8.99251 6.22152C9.54741 6.59146 10.3798 7.63552 10.3798 8.53362C10.3798 9.07527 9.98016 9.54104 9.65082 9.92491C9.41783 10.1965 9.22001 10.4271 9.22372 10.6145C9.23268 11.0669 9.73018 12.244 10.7431 13.2569C11.756 14.2698 12.9331 14.7673 13.3855 14.7763C13.5729 14.78 13.8035 14.5822 14.0751 14.3492C14.459 14.0198 14.9247 13.6202 15.4664 13.6202C16.3645 13.6202 17.4085 14.4526 17.7785 15.0075C18.1979 15.6119 18.0097 16.626 17.3161 17.3196C16.16 18.4756 12.9231 18.4756 9.22372 14.7763Z" fill="#313234"/>
</svg>

<svg xmlns="http://www.w3.org/2000/svg" width="24" height="24" fill="none" viewBox="0 0 24 24"><path fill="#313234" fill-rule="evenodd" d="M12 0C5.373 0 0 5.373 0 12s5.373 12 12 12 12-5.373 12-12S18.627 0 12 0M9.224 14.776c-3.7-3.7-3.7-6.936-2.544-8.092.694-.694 1.708-.882 2.313-.462.554.37 1.387 1.414 1.387 2.312 0 .541-.4 1.007-.73 1.39-.232.273-.43.503-.426.69.009.453.506 1.63 1.52 2.643 1.012 1.013 2.19 1.51 2.642 1.52.187.003.418-.195.69-.428.383-.33.849-.729 1.39-.729.899 0 1.943.833 2.313 1.388.419.604.23 1.618-.463 2.312-1.156 1.156-4.393 1.156-8.092-2.544" clip-rule="evenodd"/></svg>
